!!!COM: Béla Bartók
!!!OTL: [T346_Bar-w45p28m199-206]
**kern	**dynam	**kern	**dynam	**kern	**dynam	**kern	**dynam	**kern	**dynam	**kern	**dynam	**kern	**dynam	**kern	**dynam	**kern	**dynam	**kern	**dynam	**kern	**dynam	**kern	**dynam	**kern	**dynam	**kern	**dynam	**kern	**dynam	**kern	**dynam
*grp:A	*grp:A	*grp:A	*grp:A	*grp:A	*grp:A	*grp:A	*grp:A	*grp:A	*grp:A	*grp:A	*grp:A	*grp:B	*grp:B	*grp:B	*grp:B	*grp:B	*grp:B	*grp:B	*grp:B	*grp:B	*grp:B	*grp:B	*grp:B	*grp:A	*grp:A	*grp:A	*grp:A	*grp:B	*grp:B	*grp:B	*grp:B
*part14	*	*part13	*	*part12	*	*part11	*	*part10	*	*part9	*	*part8	*part8	*part7	*part7	*part6	*part6	*part5	*part5	*part4	*	*part4	*part4	*part3	*	*part3	*	*part2	*part2	*part1	*part1
*staff16	*	*staff15	*	*staff14	*	*staff13	*	*staff12	*	*staff11	*	*staff10	*	*staff9	*	*staff8	*	*staff7	*	*staff6	*	*staff5	*	*staff4	*	*staff3	*	*staff2	*	*staff1	*
*I"Contrabass II	*	*I"Violoncello II	*	*I"Viola II	*	*I"Violin IV	*	*I"Violin III	*	*I"Contrabass I	*	*I"Violoncello I	*	*I"Viola I	*	*I"Violin II	*	*I"Violin I	*	*I"Piano	*	*	*	*I"Harp	*	*	*	*I"Bass Drum	*	*I"Snare Drum senza corda	*
*I'Cb.	*	*I'Vc.	*	*I'Vla.	*	*I'Vln. II	*	*I'Vln. I	*	*I'Cb.	*	*I'Vc.	*	*I'Vla.	*	*I'Vln. II	*	*I'Vln. I	*	*I'Pno.	*	*	*	*I'Hp.	*	*	*	*I'B. D.	*	*I'S. D.	*
*	*	*	*	*	*	*	*	*	*	*	*	*	*	*	*	*	*	*	*	*	*	*	*	*	*	*	*	*stria1	*	*stria1	*
*clefF4	*	*clefF4	*	*clefC3	*	*clefG2	*	*clefG2	*	*clefF4	*	*clefF4	*	*clefC3	*	*clefG2	*	*clefG2	*	*clefG2	*	*clefG2	*	*clefF4	*	*clefG2	*	*clefX	*	*clefX	*
*ITrd7c12	*	*	*	*	*	*	*	*	*	*ITrd7c12	*	*	*	*	*	*	*	*	*	*	*	*	*	*	*	*	*	*	*	*	*
*k[]	*	*k[]	*	*k[]	*	*k[]	*	*k[]	*	*k[]	*	*k[]	*	*k[]	*	*k[]	*	*k[]	*	*k[]	*	*k[]	*	*k[]	*	*k[]	*	*k[]	*	*k[]	*
*M2/4	*	*M2/4	*	*M2/4	*	*M2/4	*	*M2/4	*	*M2/4	*	*M2/4	*	*M2/4	*	*M2/4	*	*M2/4	*	*M2/4	*	*M2/4	*	*M2/4	*	*M2/4	*	*M2/4	*	*M2/4	*
=199	=199	=199	=199	=199	=199	=199	=199	=199	=199	=199	=199	=199	=199	=199	=199	=199	=199	=199	=199	=199	=199	=199	=199	=199	=199	=199	=199	=199	=199	=199	=199
!LO:TX:a:t=[pizz.]	!LO:DY:ed=brack	!LO:TX:a:t=[pizz.]	!LO:DY:ed=brack	!LO:TX:a:t=[pizz.]	!LO:DY:ed=brack	!LO:TX:a:t=[pizz.]	!LO:DY:ed=brack	!LO:TX:a:t=[pizz.]	!LO:DY:ed=brack	!LO:TX:a:t=[pizz.]	!LO:DY:ed=brack	!LO:TX:a:t=pizz.	!	!LO:TX:a:t=pizz.	!	!LO:TX:a:t=div. pizz.	!	!LO:TX:a:t=div. pizz.	!	!	!	!	!	!	!	!	!LO:DY:ed=brack	!	!	!LO:TX:t=[[quarter]=144]	!
!	!	!	!	!	!	!	!	!	!	!	!	!	!	!	!	!	!	!LO:TX:t=P:problem:Bartók pizz. notated by "", to be visualized	!	!	!	!	!	!	!	!	!	!	!	!	!
!	!	!	!	!	!	!	!	!	!	!	!	!	!	!	!	!	!	!	!	!	!	!	!LO:DY:t=%s secco	!	!	!	!	!	!	!LO:TX:t=[at the edge of the drum]	!
8ryy	4ryy	8ryy	4ryy	8ryy	4ryy	8ryy	4ryy	8ryy	4ryy	8ryy	4ryy	4G""	mf	4B-X""	mf	4e-X"" 4g""	mf	4b-X"" 4ee-X""	mf	4gg`	.	4bb-X` 4eee-X	f	8ryy	.	8ryy	4ryy	[2Re/	p	4Re/	p
8ryy	.	8ryy	.	8ryy	.	8ryy	.	8ryy	.	8ryy	.	.	.	.	.	.	.	.	.	.	.	.	.	8ryy	.	8ryy	.	.	.	.	.
8ryy	.	8ryy	.	8ryy	.	8ryy	.	8ryy	.	8ryy	.	8r	.	8r	.	8r	.	8r	.	8r	.	8r	.	8ryy	.	8ryy	.	.	.	8r	.
8ryy	.	8ryy	.	8ryy	.	8ryy	.	8ryy	.	8ryy	.	8G""	.	8B-""	.	8e-"" 8g""	.	8b-"" 8ee-""	.	8gg`	.	8bb-` 8eee-	.	8ryy	.	8ryy	.	.	.	8Re/	.
!!LO:REH:t=200
=200	=200	=200	=200	=200	=200	=200	=200	=200	=200	=200	=200	=200	=200	=200	=200	=200	=200	=200	=200	=200	=200	=200	=200	=200	=200	=200	=200	=200	=200	=200	=200
8ryy	.	8ryy	.	8ryy	.	8ryy	.	8ryy	.	8ryy	.	4r	.	4r	.	4r	.	4r	.	4r	.	4r	.	8ryy	.	8ryy	.	2r	.	4r	.
8ryy	.	8ryy	.	8ryy	.	8ryy	.	8ryy	.	8ryy	.	.	.	.	.	.	.	.	.	.	.	.	.	8ryy	.	8ryy	.	.	.	.	.
8ryy	.	8ryy	.	8ryy	.	8ryy	.	8ryy	.	8ryy	.	8GL""	.	8B-XL""	.	8e-XL"" 8g""	.	8b-XL"" 8ee-X""	.	8gg`L	.	8bb-X`L 8eee-X	.	8ryy	.	8ryy	.	.	.	4Re/	.
8ryy	.	8ryy	.	8ryy	.	8ryy	.	8ryy	.	8ryy	.	8GJ""	.	8B-J""	.	8e-J"" 8g""	.	8b-J"" 8ee-""	.	8gg`J	.	8bb-`J 8eee-	.	8ryy	.	8ryy	.	.	.	.	.
=201	=201	=201	=201	=201	=201	=201	=201	=201	=201	=201	=201	=201	=201	=201	=201	=201	=201	=201	=201	=201	=201	=201	=201	=201	=201	=201	=201	=201	=201	=201	=201
8ryy	.	8ryy	.	8ryy	.	8ryy	.	8ryy	.	8ryy	.	4r	.	4r	.	4r	.	4r	.	4r	.	4r	.	8ryy	.	8ryy	.	2r	.	2r	.
8ryy	.	8ryy	.	8ryy	.	8ryy	.	8ryy	.	8ryy	.	.	.	.	.	.	.	.	.	.	.	.	.	8ryy	.	8ryy	.	.	.	.	.
!	!	!	!	!	!	!	!	!	!	!	!	!LO:TX:a:i:t=sempre simile	!	!LO:TX:a:i:t=sempre simile	!	!LO:TX:a:i:t=sempre simile	!	!LO:TX:a:i:t=sempre simile	!	!	!	!	!	!	!	!	!	!	!	!	!
8ryy	.	8ryy	.	8ryy	.	8ryy	.	8ryy	.	8ryy	.	8r	.	8r	.	8r	.	8r	.	8r	.	8r	.	8ryy	.	8ryy	.	.	.	.	.
8ryy	.	8ryy	.	8ryy	.	8ryy	.	8ryy	.	8ryy	.	8G	.	8B-X	.	8e-X 8g	.	8b-X 8ee-X	.	8gg`	.	8bb-X` 8eee-X	.	8ryy	.	8ryy	.	.	.	.	.
=202	=202	=202	=202	=202	=202	=202	=202	=202	=202	=202	=202	=202	=202	=202	=202	=202	=202	=202	=202	=202	=202	=202	=202	=202	=202	=202	=202	=202	=202	=202	=202
8ryy	.	8ryy	.	8ryy	.	8ryy	.	8ryy	.	8ryy	.	4r	.	4r	.	4r	.	4r	.	4r	.	4r	.	8ryy	.	8ryy	.	2r	.	2r	.
8ryy	.	8ryy	.	8ryy	.	8ryy	.	8ryy	.	8ryy	.	.	.	.	.	.	.	.	.	.	.	.	.	8ryy	.	8ryy	.	.	.	.	.
!	!	!	!	!	!	!	!	!	!	!	!	!	!	!	!	!	!	!	!	!	!	!LO:TX:b:i:t=simile	!	!	!	!	!	!	!	!	!
8ryy	.	8ryy	.	8ryy	.	8ryy	.	8ryy	.	8ryy	.	8F#XL	.	8AL	.	8dL 8f#X	.	8aL 8dd	.	8ff#XL	.	8aaL 8ddd	.	8ryy	.	8ryy	.	.	.	.	.
8ryy	.	8ryy	.	8ryy	.	8ryy	.	8ryy	.	8ryy	.	8D#XJ	.	8F#XJ	.	8BJ 8d#X	.	8f#XJ 8b	.	8dd#XJ	.	8ff#XJ 8bb	.	8ryy	.	8ryy	.	.	.	.	.
=203	=203	=203	=203	=203	=203	=203	=203	=203	=203	=203	=203	=203	=203	=203	=203	=203	=203	=203	=203	=203	=203	=203	=203	=203	=203	=203	=203	=203	=203	=203	=203
8ryy	.	8ryy	.	8ryy	.	8ryy	.	8ryy	.	8ryy	.	8r	.	8r	.	8r	.	8r	.	8r	.	8r	.	8ryy	.	8ryy	.	2r	.	2r	.
8ryy	.	8ryy	.	8ryy	.	8ryy	.	8ryy	.	8ryy	.	4E	.	4G	.	4c 4e	.	4g 4cc	.	4ee	.	4gg 4ccc	.	8ryy	.	8ryy	.	.	.	.	.
8ryy	.	8ryy	.	8ryy	.	8ryy	.	8ryy	.	8ryy	.	.	.	.	.	.	.	.	.	.	.	.	.	8ryy	.	8ryy	.	.	.	.	.
8ryy	.	8ryy	.	8ryy	.	8ryy	.	8ryy	.	8ryy	.	8r	.	8r	.	8r	.	8r	.	8r	.	8r	.	8ryy	.	8ryy	.	.	.	.	.
=204	=204	=204	=204	=204	=204	=204	=204	=204	=204	=204	=204	=204	=204	=204	=204	=204	=204	=204	=204	=204	=204	=204	=204	=204	=204	=204	=204	=204	=204	=204	=204
8ryy	.	8ryy	.	8ryy	.	8ryy	.	8ryy	.	8ryy	.	4F	.	4A-X	.	4d-X 4f	.	4a-X 4dd-X	.	4ff	.	4aa-X 4ddd-X	.	8ryy	.	8ryy	.	2r	.	2r	.
8ryy	.	8ryy	.	8ryy	.	8ryy	.	8ryy	.	8ryy	.	.	.	.	.	.	.	.	.	.	.	.	.	8ryy	.	8ryy	.	.	.	.	.
8ryy	.	8ryy	.	8ryy	.	8ryy	.	8ryy	.	8ryy	.	4r	.	4r	.	4r	.	4r	.	4r	.	4r	.	8ryy	.	8ryy	.	.	.	.	.
8ryy	.	8ryy	.	8ryy	.	8ryy	.	8ryy	.	8ryy	.	.	.	.	.	.	.	.	.	.	.	.	.	8ryy	.	8ryy	.	.	.	.	.
=205	=205	=205	=205	=205	=205	=205	=205	=205	=205	=205	=205	=205	=205	=205	=205	=205	=205	=205	=205	=205	=205	=205	=205	=205	=205	=205	=205	=205	=205	=205	=205
!	!	!	!	!	!	!	!	!	!	!	!	!	!	!	!	!	!	!	!	!	!	!	!	!	!	!	!	!	!	!LO:TX:t=[at the edge of the drum]	!
8ryy	.	8ryy	.	8ryy	.	8ryy	.	8ryy	.	8ryy	.	4G	.	4B-X	.	4e-X 4g	.	4b-X 4ee-X	.	4gg	.	4bb-X 4eee-X	.	8ryy	.	8ryy	.	[2Re/	.	4Re/	.
8ryy	.	8ryy	.	8ryy	.	8ryy	.	8ryy	.	8ryy	.	.	.	.	.	.	.	.	.	.	.	.	.	8ryy	.	8ryy	.	.	.	.	.
8ryy	.	8ryy	.	8ryy	.	8ryy	.	8ryy	.	8ryy	.	8r	.	8r	.	8r	.	8r	.	8r	.	8r	.	8ryy	.	8ryy	.	.	.	8r	.
8ryy	.	8ryy	.	8ryy	.	8ryy	.	8ryy	.	8ryy	.	8G	.	8B-	.	8e- 8g	.	8b- 8ee-	.	8gg	.	8bb- 8eee-	.	8ryy	.	8ryy	.	.	.	8Re/	.
=206	=206	=206	=206	=206	=206	=206	=206	=206	=206	=206	=206	=206	=206	=206	=206	=206	=206	=206	=206	=206	=206	=206	=206	=206	=206	=206	=206	=206	=206	=206	=206
8ryy	.	8ryy	.	8ryy	.	8ryy	.	8ryy	.	8ryy	.	4r	.	4r	.	4r	.	4r	.	4r	.	4r	.	8ryy	.	8ryy	.	2r	.	4r	.
8ryy	.	8ryy	.	8ryy	.	8ryy	.	8ryy	.	8ryy	.	.	.	.	.	.	.	.	.	.	.	.	.	8ryy	.	8ryy	.	.	.	.	.
8ryy	.	8ryy	.	8ryy	.	8ryy	.	8ryy	.	8ryy	.	8GL	.	8B-XL	.	8e-XL 8g	.	8b-XL 8ee-X	.	8ggL	.	8bb-XL 8eee-X	.	8ryy	.	8ryy	.	.	.	4Re/	.
8ryy	.	8ryy	.	8ryy	.	8ryy	.	8ryy	.	8ryy	.	8GJ	.	8B-J	.	8e-J 8g	.	8b-J 8ee-	.	8ggJ	.	8bb-J 8eee-	.	8ryy	.	8ryy	.	.	.	.	.
=	=	=	=	=	=	=	=	=	=	=	=	=	=	=	=	=	=	=	=	=	=	=	=	=	=	=	=	=	=	=	=
*-	*-	*-	*-	*-	*-	*-	*-	*-	*-	*-	*-	*-	*-	*-	*-	*-	*-	*-	*-	*-	*-	*-	*-	*-	*-	*-	*-	*-	*-	*-	*-
!!!system-decoration: [(s1,s2)][({(s3,s4)})][({(s5,s6)})][(s7,s8,s9,s10,s11)][(s12,s13,s14,s15,s16)]
!!!EED: Daniel Wright
!!!EEV: 2021/07/14
!!!EED2: Jason Lee
!!!EEV2: 2022/02/04
